src/assets/images/star-circle.svg

<svg xmlns="http://www.w3.org/2000/svg" height="24" width="24" viewBox="0 0 24 24">
  <path fill="#1e293b" d="M12.009766 4.5957093a.90008998.90008998 0 0 0-.816407.501954l-1.7714842 3.589843-3.9648438.580078a.90008998.90008998 0 0 0-.4980468 1.5351567l2.8671875 2.792969-.6757813 3.945313a.90008998.90008998 0 0 0 1.3046875.947265L12 16.625007l3.544922 1.863281a.90008998.90008998 0 0 0 1.304687-.947265l-.675781-3.945313 2.867188-2.792969a.90008998.90008998 0 0 0-.498047-1.5351567l-3.962891-.580078-1.773437-3.589843a.90008998.90008998 0 0 0-.796875-.501954ZM12 7.5273503l1.175781 2.380859a.90008998.90008998 0 0 0 .675781.4921887l2.626954.384765-1.900391 1.84961a.90008998.90008998 0 0 0-.257813.796875l.447266 2.617187-2.349609-1.236328a.90008998.90008998 0 0 0-.835938 0l-2.3496093 1.236328.4472656-2.617187a.90008998.90008998 0 0 0-.2578125-.796875l-1.9003906-1.84961 2.6289068-.384765a.90008998.90008998 0 0 0 .675781-.4921887z"/>
  <path fill="#1e293b" d="M12 0C5.3842919 0 1.2e-7 5.3842918 1.2e-7 12 1.2e-7 18.615708 5.3842919 24 12 24c6.615708 0 12-5.384292 12-12 0-6.6157082-5.384292-12-12-12Zm0 2.0084994c5.530235 1e-7 9.991501 4.461266 9.991501 9.9915006 0 5.530235-4.461266 9.991501-9.991501 9.991501-5.5302344 0-9.9915003-4.461266-9.9915004-9.991501 0-5.5302346 4.461266-9.9915005 9.9915004-9.9915006Z"/>
</svg>

<?xml version="1.0" encoding="UTF-8" standalone="no"?>
<svg
   xmlns:dc="http://purl.org/dc/elements/1.1/"
   xmlns:cc="http://creativecommons.org/ns#"
   xmlns:rdf="http://www.w3.org/1999/02/22-rdf-syntax-ns#"
   xmlns:svg="http://www.w3.org/2000/svg"
   xmlns="http://www.w3.org/2000/svg"
   xmlns:sodipodi="http://sodipodi.sourceforge.net/DTD/sodipodi-0.dtd"
   xmlns:inkscape="http://www.inkscape.org/namespaces/inkscape"
   height="24"
   width="24"
   viewBox="0 0 24 24"
   version="1.1"
   id="svg4"
   sodipodi:docname="star.svg"
   inkscape:version="0.92.5 (2060ec1f9f, 2020-04-08)">
  <metadata
     id="metadata10">
    <rdf:RDF>
      <cc:Work
         rdf:about="">
        <dc:format>image/svg+xml</dc:format>
        <dc:type
           rdf:resource="http://purl.org/dc/dcmitype/StillImage" />
      </cc:Work>
    </rdf:RDF>
  </metadata>
  <defs
     id="defs8" />
  <sodipodi:namedview
     pagecolor="#ffffff"
     bordercolor="#666666"
     borderopacity="1"
     objecttolerance="10"
     gridtolerance="10"
     guidetolerance="10"
     inkscape:pageopacity="0"
     inkscape:pageshadow="2"
     inkscape:window-width="770"
     inkscape:window-height="480"
     id="namedview6"
     showgrid="false"
     inkscape:zoom="9.8333333"
     inkscape:cx="12"
     inkscape:cy="12"
     inkscape:window-x="683"
     inkscape:window-y="241"
     inkscape:window-maximized="0"
     inkscape:current-layer="svg4" />
  <path
     style="color:#000000;font-style:normal;font-variant:normal;font-weight:normal;font-stretch:normal;font-size:medium;line-height:normal;font-family:sans-serif;font-variant-ligatures:normal;font-variant-position:normal;font-variant-caps:normal;font-variant-numeric:normal;font-variant-alternates:normal;font-feature-settings:normal;text-indent:0;text-align:start;text-decoration:none;text-decoration-line:none;text-decoration-style:solid;text-decoration-color:#000000;letter-spacing:normal;word-spacing:normal;text-transform:none;writing-mode:lr-tb;direction:ltr;text-orientation:mixed;dominant-baseline:auto;baseline-shift:baseline;text-anchor:start;white-space:normal;shape-padding:0;clip-rule:nonzero;display:inline;overflow:visible;visibility:visible;opacity:1;isolation:auto;mix-blend-mode:normal;color-interpolation:sRGB;color-interpolation-filters:linearRGB;solid-color:#000000;solid-opacity:1;vector-effect:none;fill:#1e293b;fill-opacity:1;fill-rule:nonzero;stroke:none;stroke-width:1.79999995;stroke-linecap:round;stroke-linejoin:round;stroke-miterlimit:4;stroke-dasharray:none;stroke-dashoffset:0;stroke-opacity:1;color-rendering:auto;image-rendering:auto;shape-rendering:auto;text-rendering:auto;enable-background:accumulate"
     d="m 12.009766,4.5957093 a 0.90008998,0.90008998 0 0 0 -0.816407,0.501954 L 9.4218748,8.6875063 5.457031,9.2675843 A 0.90008998,0.90008998 0 0 0 4.9589842,10.802741 l 2.8671875,2.792969 -0.6757813,3.945313 a 0.90008998,0.90008998 0 0 0 1.3046875,0.947265 L 12,16.625007 l 3.544922,1.863281 a 0.90008998,0.90008998 0 0 0 1.304687,-0.947265 L 16.173828,13.59571 19.041016,10.802741 A 0.90008998,0.90008998 0 0 0 18.542969,9.2675843 L 14.580078,8.6875063 12.806641,5.0976633 A 0.90008998,0.90008998 0 0 0 12.009766,4.5957093 Z M 12,7.5273503 l 1.175781,2.380859 a 0.90008998,0.90008998 0 0 0 0.675781,0.4921887 l 2.626954,0.384765 -1.900391,1.84961 a 0.90008998,0.90008998 0 0 0 -0.257813,0.796875 l 0.447266,2.617187 -2.349609,-1.236328 a 0.90008998,0.90008998 0 0 0 -0.835938,0 L 9.2324217,16.048835 9.6796873,13.431648 A 0.90008998,0.90008998 0 0 0 9.4218748,12.634773 l -1.9003906,-1.84961 2.6289068,-0.384765 a 0.90008998,0.90008998 0 0 0 0.675781,-0.4921887 z"
     id="path2"
     inkscape:connector-curvature="0" />
  <path
     style="color:#000000;font-style:normal;font-variant:normal;font-weight:normal;font-stretch:normal;font-size:medium;line-height:normal;font-family:sans-serif;font-variant-ligatures:normal;font-variant-position:normal;font-variant-caps:normal;font-variant-numeric:normal;font-variant-alternates:normal;font-feature-settings:normal;text-indent:0;text-align:start;text-decoration:none;text-decoration-line:none;text-decoration-style:solid;text-decoration-color:#000000;letter-spacing:normal;word-spacing:normal;text-transform:none;writing-mode:lr-tb;direction:ltr;text-orientation:mixed;dominant-baseline:auto;baseline-shift:baseline;text-anchor:start;white-space:normal;shape-padding:0;clip-rule:nonzero;display:inline;overflow:visible;visibility:visible;opacity:1;isolation:auto;mix-blend-mode:normal;color-interpolation:sRGB;color-interpolation-filters:linearRGB;solid-color:#000000;solid-opacity:1;vector-effect:none;fill:#1e293b;fill-opacity:1;fill-rule:nonzero;stroke:none;stroke-width:2.00849938;stroke-linecap:round;stroke-linejoin:round;stroke-miterlimit:4;stroke-dasharray:none;stroke-dashoffset:0;stroke-opacity:1;color-rendering:auto;image-rendering:auto;shape-rendering:auto;text-rendering:auto;enable-background:accumulate"
     d="M 12,0 C 5.3842919,0 1.25e-7,5.3842918 1.25e-7,12 1.25e-7,18.615708 5.3842919,24 12,24 18.615708,24 24,18.615708 24,12 24,5.3842918 18.615708,0 12,0 Z m 0,2.0084994 c 5.530235,1e-7 9.991501,4.461266 9.991501,9.9915006 0,5.530235 -4.461266,9.991501 -9.991501,9.991501 C 6.4697656,21.991501 2.0084997,17.530235 2.0084996,12 2.0084996,6.4697654 6.4697656,2.0084995 12,2.0084994 Z"
     id="path819"
     inkscape:connector-curvature="0" />
</svg>
